X: 1435
T: Forty Thieves
C:trad
B: australian traditional tunes wiki
M:6/8
L:1/8
R: Jig
Q: 3/8=100
K:D
V:1 
"D"f2d dcd|f2d dcd|"A"e2ea2a|"D"f3d3|
f2d dcd|f2d dcd|"A"e2ea2a|"D"d3d3:|
|:"A"e^de a^ga|"D"f3d2d|"A"e^de a^ga|"D"f3d2z|
"G"b2g gfg|"D"a2f fef|"A"e2ea2a|"D"d6:|
% abcbook-tune_id 6342d53a94528a18bdf55f23


% abcbook-boost 0
% abcbook-tablature 
% abcbook-transpose 
% abcbook-lastupdated 1665324364955
% abcbook-soundfonts 
% abcbook-repeats 1
% NFF Book 2020
% Bush Traditions recording played by Roland Clarke

